img/home/sm/CodeSchool.svg

<svg xmlns="http://www.w3.org/2000/svg" width="37" height="36" viewBox="0 0 37 36">
  <g fill="none" fill-rule="evenodd" transform="translate(-18 -18)">
    <rect width="72" height="72" fill="none"/>
    <g fill="#48484F" transform="translate(18 18)">
      <path d="M18.5,36 C13.4828,36 8.806,34.162963 5.3724,30.8296296 C1.9092,27.4814815 0,22.9333333 0,18.0444444 C0,7.92592593 8.1252,0 18.5,0 C28.8748,0 37,7.92592593 37,18.0444444 C37,22.9333333 35.0908,27.4814815 31.6276,30.8296296 C28.194,34.162963 23.532,36 18.5,36 L18.5,36 Z M18.5,2.87407407 C14.2376,2.87407407 10.2712,4.44444444 7.3704,7.27407407 C4.4696,10.1037037 2.8712,13.9259259 2.8712,18.0444444 C2.8712,22.1481481 4.4696,25.9555556 7.3556,28.7703704 C10.2712,31.5851852 14.2228,33.1407407 18.5,33.1407407 C22.7772,33.1407407 26.7288,31.5851852 29.6444,28.7703704 C32.5452,25.9703704 34.1288,22.162963 34.1288,18.0444444 C34.1288,13.9259259 32.5304,10.1037037 29.6296,7.27407407 C26.7288,4.42962963 22.7772,2.87407407 18.5,2.87407407 L18.5,2.87407407 Z"/>
      <polygon points="21 8 21 12.569 26.414 18 21 23.431 21 28 31 18"/>
      <polygon points="16 23.431 10.571 18 16 12.569 16 8 6 18 16 28"/>
    </g>
  </g>
</svg>

<svg xmlns="http://www.w3.org/2000/svg" width="37" height="36"><g fill="none" fill-rule="evenodd"><path d="M-18-18h72v72h-72z"/><g fill="#48484F"><path d="M18.5 36c-5.017 0-9.694-1.837-13.128-5.17C1.91 27.48 0 22.933 0 18.044 0 7.926 8.125 0 18.5 0S37 7.926 37 18.044c0 4.89-1.91 9.437-5.372 12.786C28.194 34.163 23.532 36 18.5 36zm0-33.126c-4.262 0-8.229 1.57-11.13 4.4-2.9 2.83-4.499 6.652-4.499 10.77 0 4.104 1.599 7.912 4.485 10.726 2.915 2.815 6.867 4.37 11.144 4.37s8.229-1.555 11.144-4.37c2.901-2.8 4.485-6.607 4.485-10.726 0-4.118-1.599-7.94-4.5-10.77-2.9-2.844-6.852-4.4-11.129-4.4z"/><path d="M21 8v4.569L26.414 18 21 23.431V28l10-10zM16 23.431L10.571 18 16 12.569V8L6 18l10 10z"/></g></g></svg>
